file-rotate-left-outline.svg

<svg fill="currentColor" viewBox="0 0 24 24"><path d="M4 11c0-4.42 3.58-8 8-8l1 .06v2.02L12 5c-3.31 0-6 2.69-6 6h3l-4 4-4-4zm13-4h-4c-1.1 0-2 .9-2 2v9a2 2 0 0 0 2 2h6c1.11 0 2-.89 2-2v-7zm2 11h-6V9h3v3h3z"/></svg>

<svg  viewBox="0 0 24 24" fill="currentColor"><path  d="M4 11C4 6.58 7.58 3 12 3L13 3.06V5.08L12 5C8.69 5 6 7.69 6 11H9L5 15L1 11H4M17 7H13C11.9 7 11 7.9 11 9V18C11 19.11 11.9 20 13 20H19C20.11 20 21 19.11 21 18V11L17 7M19 18H13V9H16V12H19V18Z"/></svg>
